Origami/24x24/apps/warmux.svg

<svg width="24" height="24" version="1" xmlns="http://www.w3.org/2000/svg">
 <rect transform="rotate(30)" x="15.86" y="-6.92" width="1" height="4" rx=".131" ry=".178" style="fill:#ffd38d"/>
 <path d="m14.518 2.9068c-0.24-0.1385-0.5445-0.0569-0.683 0.183l-0.68 1.1773a9 9 0 0 0 -9.9493 4.233 9 9 0 0 0 3.294 12.294 9 9 0 0 0 12.294 -3.294 9 9 0 0 0 -1.31 -10.731l0.681-1.1794c0.138-0.2399 0.057-0.5445-0.183-0.683l-3.464-2z" fill="#4f4f4f"/>
 <path d="m18.16 5.5977-0.6755 1.1709a9 9 0 0 1 0.1735 0.1985l0.507-0.877c0.092-0.1593 0.079-0.3436-5e-3 -0.4923zm-16.148 7.5583a9 9 0 0 0 4.4873 8.138 9 9 0 0 0 12.294 -3.294 9 9 0 0 0 1.19 -4.653 9 9 0 0 1 -1.19 4.153 9 9 0 0 1 -12.294 3.294 9 9 0 0 1 -4.4878 -7.638z" opacity=".2"/>
 <path d="m14.329 2.8428c-0.193-0.0242-0.39 0.0672-0.494 0.2471l-0.68 1.1768a9 9 0 0 0 -9.9493 4.2334 9 9 0 0 0 -1.1933 4.6559 9 9 0 0 1 1.1934 -4.1559 9 9 0 0 1 9.9492 -4.2334l0.679-1.1768c0.139-0.2399 0.443-0.3221 0.683-0.1836l3.465 2c0.0805 0.0466 0.135 0.11575 0.1775 0.19125l5e-3 -0.0075c0.138-0.2401 0.057-0.5453-0.183-0.6838l-3.463-2.0001c-0.06-0.0346-0.124-0.0554-0.189-0.0635zm3.329 4.1243-0.1735 0.3015a9 9 0 0 1 2.5 6.078 9 9 0 0 0 -2.3265 -6.3795z" fill="#fff" opacity=".1"/>
 <path d="m10.458984 7.5004735c-0.121532-8.471e-4 -0.23132 0.00333-0.328125 0.011719-0.9109167 0.078574-2.0983699 0.8652684-3.1054684 2.0585937-0.973501 1.1535218-1.2551277 2.0752268-0.8398437 2.7539078 0.4676748 0.764306 1.0085295 1.198934 1.7636719 1.417969 0.6460195 0.187378 0.8392055 0.301048 1.3925781 0.820312 0.8932281 0.838179 1.2020641 0.932469 3.0800781 0.9375 0.793275 0.0022 1.748559-0.02861 2.123047-0.06836 0.553689-0.05877 0.786824-0.128695 1.24414-0.371094 1.21313-0.643008 1.408084-1.080075 1.050782-2.339844-0.111434-0.392893-0.293601-1.223716-0.404297-1.845702-0.110696-0.621989-0.250213-1.2260672-0.310547-1.3437515-0.268513-0.5237518-1.132498-1.0272252-2.621094-1.5292969-0.815817-0.2751587-2.194204-0.4960931-3.044922-0.5019531zm-0.3125 2c0.699775 0.033143 0.857179 0.7238625 0.853516 1.3144545 0 0.83397-0.107381 1.155781-0.490234 1.474609-0.285947 0.23813-0.9842608 0.287657-1.1933598 0.08399-0.2184945-0.212834-0.3164062-0.610868-0.3164062-1.287114 0-1.018431 0.4095876-1.5856395 1.146484-1.5859395zm3.388672 1.0000015c0.19464-0.0027 0.40131 0.04647 0.650391 0.146484 0.257105 0.10324 0.544662 0.269015 0.640625 0.369141 0.228876 0.238808 0.231936 0.778504 0.0059 1.376953-0.341179 0.903179-1.02133 1.266933-1.955078 1.044922-0.359314-0.08543-0.783007-0.492094-0.859375-0.824219-0.123401-0.536656 0.426256-1.671135 0.94336-1.949219 0.197548-0.106234 0.379579-0.161352 0.574218-0.164062zm-6.5703122 4c-0.2522933-0.0016-0.5197436 0.0915-0.7773438 0.28125-0.3157198 0.232561-0.9320483 1.041638-1.0957031 1.439453-0.3096905 0.752802 0.204804 1.914295 0.9765625 2.205078 0.2714705 0.102284 0.2757358 0.102321 0.5214844-0.0293 0.2921603-0.156485 0.434774-0.36625 0.9414062-1.384765 0.3422434-0.688031 0.4342693-0.946714 0.4589844-1.296875 0.027963-0.396162 0.00883-0.466133-0.1894532-0.75-0.2141368-0.306575-0.5115605-0.462848-0.8359374-0.464841zm2.8632812 2c-0.7279588 0-1.2471299 0.489048-1.5839844 1.490234-0.2919593 0.867767-0.3235649 1.603332-0.082031 1.861328 0.420714 0.449388 1.9776924 0.813105 2.4531244 0.572266 0.198469-0.100541 0.261178-0.249963 0.355469-0.859375 0.09025-0.583353-0.03579-1.885831-0.230469-2.388672-0.173611-0.448391-0.478941-0.675781-0.912109-0.675781zm3.664063 0c-0.06528-5e-4 -0.142013 0.0029-0.232422 0.0098-0.539347 0.04117-0.829561 0.225023-1.089844 0.6875-0.173527 0.308314-0.190056 0.420167-0.154297 1.044922 0.04462 0.779309 0.164609 1.180347 0.375 1.238281 0.225982 0.06222 1.241686-0.03106 1.6875-0.154297 0.548229-0.151561 0.921875-0.448041 0.921875-0.732456 0-0.303651-0.789799-1.746498-1.068359-1.951172-0.139676-0.102663-0.243625-0.140926-0.439453-0.142578z" style="opacity:.2"/>
 <path d="m10.458984 7c-0.121532-8.471e-4 -0.23132 0.0033288-0.328125 0.0117188-0.9109167 0.0785739-2.0983699 0.8652684-3.1054684 2.0585937-0.973501 1.1535205-1.2551277 2.0752255-0.8398437 2.7539065 0.4676748 0.764306 1.0085295 1.198934 1.7636719 1.417969 0.6460195 0.187378 0.8392055 0.301048 1.3925781 0.820312 0.8932281 0.838179 1.2020641 0.932469 3.0800781 0.9375 0.793275 0.0022 1.748559-0.028609 2.123047-0.068359 0.553689-0.05877 0.786824-0.128695 1.24414-0.371094 1.21313-0.643008 1.408084-1.080075 1.050782-2.339844-0.111434-0.392894-0.293601-1.223717-0.404297-1.845703-0.110696-0.6219876-0.250213-1.2260657-0.310547-1.34375-0.268513-0.5237518-1.132498-1.0272252-2.621094-1.5292969-0.815817-0.2751587-2.194204-0.4960931-3.044922-0.5019531zm-0.3125 2c0.699775 0.033143 0.857179 0.7238623 0.853516 1.314453 0 0.83397-0.107381 1.155781-0.490234 1.474609-0.285947 0.23813-0.9842608 0.287657-1.1933598 0.083985-0.2184945-0.212829-0.3164062-0.610863-0.3164062-1.287109 0-1.0184291 0.4095876-1.585638 1.146484-1.585938zm3.388672 1c0.19464-0.00266 0.40131 0.046466 0.650391 0.146484 0.257105 0.10324 0.544662 0.269015 0.640625 0.369141 0.228876 0.238808 0.231936 0.778504 0.005859 1.376953-0.341179 0.903179-1.02133 1.266933-1.955078 1.044922-0.359314-0.08543-0.783007-0.492094-0.859375-0.824219-0.123401-0.536656 0.426256-1.671135 0.94336-1.949219 0.197548-0.106234 0.379579-0.161352 0.574218-0.164062zm-6.5703122 4c-0.2522933-0.0016-0.5197436 0.091502-0.7773438 0.28125-0.3157198 0.232561-0.9320483 1.041638-1.0957031 1.439453-0.3096905 0.752802 0.204804 1.914295 0.9765625 2.205078 0.2714705 0.102284 0.2757358 0.102321 0.5214844-0.029297 0.2921603-0.156485 0.434774-0.36625 0.9414062-1.384765 0.3422434-0.688031 0.4342693-0.946714 0.4589844-1.296875 0.0279634-0.396162 0.008829-0.466133-0.1894532-0.75-0.2141368-0.306578-0.5115605-0.462851-0.8359374-0.464844zm2.8632812 2c-0.7279588 0-1.2471299 0.489048-1.5839844 1.490234-0.2919593 0.867767-0.3235649 1.603332-0.0820312 1.861328 0.420714 0.449388 1.9776926 0.813105 2.4531246 0.572266 0.198469-0.100541 0.261178-0.249963 0.355469-0.859375 0.09025-0.583353-0.035785-1.885831-0.230469-2.388672-0.173611-0.448391-0.478941-0.675781-0.912109-0.675781zm3.664063 0c-0.06528-5e-4 -0.142013 0.002866-0.232422 0.009766-0.539347 0.04117-0.829561 0.225023-1.089844 0.6875-0.173527 0.308314-0.190056 0.420167-0.154297 1.044922 0.04462 0.779309 0.164609 1.180347 0.375 1.238281 0.225982 0.06222 1.241686-0.031063 1.6875-0.154297 0.548229-0.151527 0.921875-0.448007 0.921875-0.732422 0-0.303651-0.789799-1.746498-1.068359-1.951172-0.139676-0.102663-0.243625-0.140926-0.439453-0.142578z" style="fill:#cbcbcb"/>
 <path d="m10.458984 7c-0.121532-8.471e-4 -0.23132 0.0033288-0.328125 0.0117188-0.9109163 0.0785739-2.0983699 0.8652684-3.1054684 2.0585937-0.7794326 0.923565-1.1082357 1.6957995-0.9980468 2.3164065 0.086274-0.521585 0.4159379-1.126653 0.9980468-1.8164065 1.0070985-1.1933253 2.1945521-1.9800198 3.1054684-2.0585937 0.096805-0.0083891 0.206593-0.0125659 0.328125-0.0117188 0.850718 0.00586 2.229105 0.2267944 3.044922 0.5019531 1.488596 0.5020717 2.352581 1.0055451 2.621094 1.5292969 0.060334 0.1176843 0.199851 0.721761 0.310547 1.34375 0.110696 0.621986 0.292863 1.45281 0.404297 1.845703 0.074625 0.263112 0.108659 0.47312 0.130859 0.673828 0.061459-0.305204 0.011025-0.673575-0.130859-1.173828-0.111434-0.392894-0.293601-1.223717-0.404297-1.845703-0.110696-0.6219876-0.250213-1.2260657-0.310547-1.34375-0.268513-0.5237518-1.132498-1.0272252-2.621094-1.5292969-0.815817-0.2751587-2.194204-0.4960931-3.044922-0.5019531zm0.527344 3.628906c-0.029906 0.59324-0.149745 0.887993-0.476562 1.160156-0.285947 0.23813-0.9842608 0.287657-1.1933598 0.083985-0.181906-0.177189-0.2631855-0.526071-0.2910156-1.013672-0.0056731 0.078741-0.0253906 0.141452-0.0253906 0.226563 0 0.676246 0.0979117 1.074275 0.3164062 1.287109 0.2090991 0.203667 0.9074128 0.154145 1.1933598-0.083985 0.382853-0.318828 0.490234-0.640639 0.490234-1.474609 3.78e-4 -0.060984-0.010196-0.123262-0.013672-0.185547zm3.984375 0.726563c-0.025764 0.169874-0.067162 0.347816-0.138672 0.537109-0.341179 0.903179-1.02133 1.266933-1.955078 1.044922-0.345121-0.082056-0.742707-0.459134-0.841797-0.783203-0.035912 0.172678-0.046492 0.333241-0.017578 0.458984 0.076368 0.332125 0.500061 0.738789 0.859375 0.824219 0.933748 0.222011 1.613899-0.141743 1.955078-1.044922 0.150675-0.398925 0.190624-0.76212 0.138672-1.037109zm-8.0058592 2.644531c-0.2522933-0.0016-0.5197436 0.091502-0.7773438 0.28125-0.3157198 0.232561-0.9320483 1.041638-1.0957031 1.439453-0.0923201 0.224414-0.103599 0.484889-0.0644531 0.748047 0.0150208-0.085444 0.0323327-0.169968 0.0644531-0.248047 0.1636548-0.397815 0.7799833-1.206892 1.0957031-1.439453 0.2576002-0.18975 0.5250505-0.28285 0.7773438-0.28125 0.3243769 0.001993 0.6218006 0.158269 0.8359374 0.464844 0.0957182 0.137032 0.1467505 0.224167 0.1738282 0.322265 0.0024214-0.023569 0.0139115-0.04799 0.015625-0.072265 0.0279634-0.396162 0.0088291-0.466133-0.1894532-0.75-0.2141368-0.306578-0.5115605-0.462851-0.8359374-0.464844zm2.8632812 2c-0.7279588 0-1.2471299 0.489048-1.5839844 1.490234-0.2034963 0.604836-0.272549 1.134702-0.21875 1.494141 0.0293587-0.293624 0.0952462-0.62706 0.21875-0.994141 0.3368545-1.001186 0.8560256-1.490234 1.5839844-1.490234 0.433168 0 0.738498 0.22739 0.912109 0.675781 0.128285 0.331351 0.219667 1.002528 0.246094 1.59375 0.030128-0.648516-0.077563-1.65846-0.246094-2.09375-0.173611-0.448391-0.478941-0.675781-0.912109-0.675781zm3.664063 0c-0.065281-5e-4 -0.142013 0.002866-0.232422 0.009766-0.539347 0.04117-0.829561 0.225023-1.089844 0.6875-0.153953 0.273535-0.174374 0.440763-0.154297 0.90039 0.02166-0.142369 0.068404-0.24778 0.154297-0.40039 0.260283-0.462477 0.550497-0.64633 1.089844-0.6875 0.090409-0.0069 0.167142-0.010266 0.232422-0.009766 0.195828 0.001652 0.299777 0.039915 0.439453 0.142578 0.232471 0.17081 0.79599 1.169899 0.984375 1.683594 0.05188-0.076419 0.083984-0.154593 0.083984-0.232422 0-0.303651-0.789799-1.746498-1.068359-1.951172-0.139676-0.102663-0.243626-0.140926-0.439453-0.142578z" style="fill:#ffffff;opacity:.2"/>
</svg>

<svg xmlns="http://www.w3.org/2000/svg" width="24" height="24" version="1">
 <rect style="fill:#ffd38d" width="1" height="4" x="15.86" y="-6.92" rx=".131" ry=".178" transform="rotate(30)"/>
 <path fill="#4f4f4f" d="m14.518 2.9068c-0.24-0.1385-0.5445-0.0569-0.683 0.183l-0.68 1.1773a9 9 0 0 0 -9.9493 4.233 9 9 0 0 0 3.294 12.294 9 9 0 0 0 12.294 -3.294 9 9 0 0 0 -1.31 -10.731l0.681-1.1794c0.138-0.2399 0.057-0.5445-0.183-0.683l-3.464-2z"/>
 <path opacity=".2" d="m18.16 5.5977-0.6755 1.1709a9 9 0 0 1 0.1735 0.1985l0.507-0.877c0.092-0.1593 0.079-0.3436-0.005-0.4923zm-16.148 7.5583a9 9 0 0 0 4.4873 8.138 9 9 0 0 0 12.294 -3.294 9 9 0 0 0 1.19 -4.653 9 9 0 0 1 -1.19 4.153 9 9 0 0 1 -12.294 3.294 9 9 0 0 1 -4.4878 -7.638z"/>
 <path fill="#fff" opacity=".1" d="m14.329 2.8428c-0.193-0.0242-0.39 0.0672-0.494 0.2471l-0.68 1.1768a9 9 0 0 0 -9.9493 4.2334 9 9 0 0 0 -1.1933 4.6559 9 9 0 0 1 1.1934 -4.1559 9 9 0 0 1 9.9492 -4.2334l0.679-1.1768c0.139-0.2399 0.443-0.3221 0.683-0.1836l3.465 2c0.0805 0.0466 0.135 0.11575 0.1775 0.19125l0.005-0.0075c0.138-0.2401 0.057-0.5453-0.183-0.6838l-3.463-2.0001c-0.06-0.0346-0.124-0.0554-0.189-0.0635zm3.329 4.1243-0.1735 0.3015a9 9 0 0 1 2.5 6.078 9 9 0 0 0 -2.3265 -6.3795z"/>
 <path style="opacity:0.2" d="m 10.458984,7.5004735 c -0.121532,-8.471e-4 -0.23132,0.00333 -0.328125,0.011719 -0.9109167,0.078574 -2.0983699,0.8652684 -3.1054684,2.0585937 -0.973501,1.1535218 -1.2551277,2.0752268 -0.8398437,2.7539078 0.4676748,0.764306 1.0085295,1.198934 1.7636719,1.417969 0.6460195,0.187378 0.8392055,0.301048 1.3925781,0.820312 0.8932281,0.838179 1.2020641,0.932469 3.0800781,0.9375 0.793275,0.0022 1.748559,-0.02861 2.123047,-0.06836 0.553689,-0.05877 0.786824,-0.128695 1.24414,-0.371094 1.21313,-0.643008 1.408084,-1.080075 1.050782,-2.339844 C 16.72841,12.328284 16.546243,11.497461 16.435547,10.875475 16.324851,10.253486 16.185334,9.6494078 16.125,9.5317235 15.856487,9.0079717 14.992502,8.5044983 13.503906,8.0024266 12.688089,7.7272679 11.309702,7.5063335 10.458984,7.5004735 Z m -0.3125,2 C 10.846259,9.5336165 11.003663,10.224336 11,10.814928 c 0,0.83397 -0.107381,1.155781 -0.490234,1.474609 -0.285947,0.23813 -0.9842608,0.287657 -1.1933598,0.08399 C 9.0979117,12.160693 9,11.762659 9,11.086413 9,10.067982 9.4095876,9.5007735 10.146484,9.5004735 Z m 3.388672,1.0000015 c 0.19464,-0.0027 0.40131,0.04647 0.650391,0.146484 0.257105,0.10324 0.544662,0.269015 0.640625,0.369141 0.228876,0.238808 0.231936,0.778504 0.0059,1.376953 -0.341179,0.903179 -1.02133,1.266933 -1.955078,1.044922 -0.359314,-0.08543 -0.783007,-0.492094 -0.859375,-0.824219 -0.123401,-0.536656 0.426256,-1.671135 0.94336,-1.949219 0.197548,-0.106234 0.379579,-0.161352 0.574218,-0.164062 z m -6.5703122,4 c -0.2522933,-0.0016 -0.5197436,0.0915 -0.7773438,0.28125 -0.3157198,0.232561 -0.9320483,1.041638 -1.0957031,1.439453 -0.3096905,0.752802 0.204804,1.914295 0.9765625,2.205078 0.2714705,0.102284 0.2757358,0.102321 0.5214844,-0.0293 0.2921603,-0.156485 0.434774,-0.36625 0.9414062,-1.384765 0.3422434,-0.688031 0.4342693,-0.946714 0.4589844,-1.296875 0.027963,-0.396162 0.00883,-0.466133 -0.1894532,-0.75 C 7.5866444,14.658741 7.2892207,14.502468 6.9648438,14.500475 Z m 2.8632812,2 c -0.7279588,0 -1.2471299,0.489048 -1.5839844,1.490234 -0.2919593,0.867767 -0.3235649,1.603332 -0.082031,1.861328 0.420714,0.449388 1.9776924,0.813105 2.4531244,0.572266 0.198469,-0.100541 0.261178,-0.249963 0.355469,-0.859375 0.09025,-0.583353 -0.03579,-1.885831 -0.230469,-2.388672 -0.173611,-0.448391 -0.478941,-0.675781 -0.912109,-0.675781 z m 3.664063,0 c -0.06528,-5e-4 -0.142013,0.0029 -0.232422,0.0098 -0.539347,0.04117 -0.829561,0.225023 -1.089844,0.6875 -0.173527,0.308314 -0.190056,0.420167 -0.154297,1.044922 0.04462,0.779309 0.164609,1.180347 0.375,1.238281 0.225982,0.06222 1.241686,-0.03106 1.6875,-0.154297 C 14.626354,19.17512 15,18.87864 15,18.594225 15,18.290574 14.210201,16.847727 13.931641,16.643053 13.791965,16.54039 13.688016,16.502127 13.492188,16.500475 Z"/>
 <path style="fill:#cbcbcb" d="M 10.458984 7 C 10.337452 6.9991529 10.227664 7.0033288 10.130859 7.0117188 C 9.2199423 7.0902927 8.0324891 7.8769872 7.0253906 9.0703125 C 6.0518896 10.223833 5.7702629 11.145538 6.1855469 11.824219 C 6.6532217 12.588525 7.1940764 13.023153 7.9492188 13.242188 C 8.5952383 13.429566 8.7884243 13.543236 9.3417969 14.0625 C 10.235025 14.900679 10.543861 14.994969 12.421875 15 C 13.21515 15.0022 14.170434 14.971391 14.544922 14.931641 C 15.098611 14.872871 15.331746 14.802946 15.789062 14.560547 C 17.002192 13.917539 17.197146 13.480472 16.839844 12.220703 C 16.72841 11.827809 16.546243 10.996986 16.435547 10.375 C 16.324851 9.7530124 16.185334 9.1489343 16.125 9.03125 C 15.856487 8.5074982 14.992502 8.0040248 13.503906 7.5019531 C 12.688089 7.2267944 11.309702 7.00586 10.458984 7 z M 10.146484 9 C 10.846259 9.033143 11.003663 9.7238623 11 10.314453 C 11 11.148423 10.892619 11.470234 10.509766 11.789062 C 10.223819 12.027192 9.5255052 12.076719 9.3164062 11.873047 C 9.0979117 11.660218 9 11.262184 9 10.585938 C 9 9.5675089 9.4095876 9.0003 10.146484 9 z M 13.535156 10 C 13.729796 9.99734 13.936466 10.046466 14.185547 10.146484 C 14.442652 10.249724 14.730209 10.415499 14.826172 10.515625 C 15.055048 10.754433 15.058108 11.294129 14.832031 11.892578 C 14.490852 12.795757 13.810701 13.159511 12.876953 12.9375 C 12.517639 12.85207 12.093946 12.445406 12.017578 12.113281 C 11.894177 11.576625 12.443834 10.442146 12.960938 10.164062 C 13.158486 10.057828 13.340517 10.00271 13.535156 10 z M 6.9648438 14 C 6.7125505 13.9984 6.4451002 14.091502 6.1875 14.28125 C 5.8717802 14.513811 5.2554517 15.322888 5.0917969 15.720703 C 4.7821064 16.473505 5.2966009 17.634998 6.0683594 17.925781 C 6.3398299 18.028065 6.3440952 18.028102 6.5898438 17.896484 C 6.8820041 17.739999 7.0246178 17.530234 7.53125 16.511719 C 7.8734934 15.823688 7.9655193 15.565005 7.9902344 15.214844 C 8.0181978 14.818682 7.9990634 14.748711 7.8007812 14.464844 C 7.5866444 14.158266 7.2892207 14.001993 6.9648438 14 z M 9.828125 16 C 9.1001662 16 8.5809951 16.489048 8.2441406 17.490234 C 7.9521813 18.358001 7.9205757 19.093566 8.1621094 19.351562 C 8.5828234 19.80095 10.139802 20.164667 10.615234 19.923828 C 10.813703 19.823287 10.876412 19.673865 10.970703 19.064453 C 11.060953 18.4811 10.934918 17.178622 10.740234 16.675781 C 10.566623 16.22739 10.261293 16 9.828125 16 z M 13.492188 16 C 13.426908 15.9995 13.350175 16.002866 13.259766 16.009766 C 12.720419 16.050936 12.430205 16.234789 12.169922 16.697266 C 11.996395 17.00558 11.979866 17.117433 12.015625 17.742188 C 12.060245 18.521497 12.180234 18.922535 12.390625 18.980469 C 12.616607 19.042689 13.632311 18.949406 14.078125 18.826172 C 14.626354 18.674645 15 18.378165 15 18.09375 C 15 17.790099 14.210201 16.347252 13.931641 16.142578 C 13.791965 16.039915 13.688016 16.001652 13.492188 16 z"/>
 <path style="fill:#ffffff;opacity:0.2" d="M 10.458984 7 C 10.337452 6.9991529 10.227664 7.0033288 10.130859 7.0117188 C 9.2199427 7.0902927 8.0324891 7.8769872 7.0253906 9.0703125 C 6.245958 9.9938775 5.9171549 10.766112 6.0273438 11.386719 C 6.1136178 10.865134 6.4432817 10.260066 7.0253906 9.5703125 C 8.0324891 8.3769872 9.2199427 7.5902927 10.130859 7.5117188 C 10.227664 7.5033297 10.337452 7.4991529 10.458984 7.5 C 11.309702 7.50586 12.688089 7.7267944 13.503906 8.0019531 C 14.992502 8.5040248 15.856487 9.0074982 16.125 9.53125 C 16.185334 9.6489343 16.324851 10.253011 16.435547 10.875 C 16.546243 11.496986 16.72841 12.32781 16.839844 12.720703 C 16.914469 12.983815 16.948503 13.193823 16.970703 13.394531 C 17.032162 13.089327 16.981728 12.720956 16.839844 12.220703 C 16.72841 11.827809 16.546243 10.996986 16.435547 10.375 C 16.324851 9.7530124 16.185334 9.1489343 16.125 9.03125 C 15.856487 8.5074982 14.992502 8.0040248 13.503906 7.5019531 C 12.688089 7.2267944 11.309702 7.00586 10.458984 7 z M 10.986328 10.628906 C 10.956422 11.222146 10.836583 11.516899 10.509766 11.789062 C 10.223819 12.027192 9.5255052 12.076719 9.3164062 11.873047 C 9.1345002 11.695858 9.0532207 11.346976 9.0253906 10.859375 C 9.0197175 10.938116 9 11.000827 9 11.085938 C 9 11.762184 9.0979117 12.160213 9.3164062 12.373047 C 9.5255053 12.576714 10.223819 12.527192 10.509766 12.289062 C 10.892619 11.970234 11 11.648423 11 10.814453 C 11.000378 10.753469 10.989804 10.691191 10.986328 10.628906 z M 14.970703 11.355469 C 14.944939 11.525343 14.903541 11.703285 14.832031 11.892578 C 14.490852 12.795757 13.810701 13.159511 12.876953 12.9375 C 12.531832 12.855444 12.134246 12.478366 12.035156 12.154297 C 11.999244 12.326975 11.988664 12.487538 12.017578 12.613281 C 12.093946 12.945406 12.517639 13.35207 12.876953 13.4375 C 13.810701 13.659511 14.490852 13.295757 14.832031 12.392578 C 14.982706 11.993653 15.022655 11.630458 14.970703 11.355469 z M 6.9648438 14 C 6.7125505 13.9984 6.4451002 14.091502 6.1875 14.28125 C 5.8717802 14.513811 5.2554517 15.322888 5.0917969 15.720703 C 4.9994768 15.945117 4.9881979 16.205592 5.0273438 16.46875 C 5.0423646 16.383306 5.0596765 16.298782 5.0917969 16.220703 C 5.2554517 15.822888 5.8717802 15.013811 6.1875 14.78125 C 6.4451002 14.5915 6.7125505 14.4984 6.9648438 14.5 C 7.2892207 14.501993 7.5866444 14.658269 7.8007812 14.964844 C 7.8964994 15.101876 7.9475317 15.189011 7.9746094 15.287109 C 7.9770308 15.26354 7.9885209 15.239119 7.9902344 15.214844 C 8.0181978 14.818682 7.9990635 14.748711 7.8007812 14.464844 C 7.5866444 14.158266 7.2892207 14.001993 6.9648438 14 z M 9.828125 16 C 9.1001662 16 8.5809951 16.489048 8.2441406 17.490234 C 8.0406443 18.09507 7.9715916 18.624936 8.0253906 18.984375 C 8.0547493 18.690751 8.1206368 18.357315 8.2441406 17.990234 C 8.5809951 16.989048 9.1001662 16.5 9.828125 16.5 C 10.261293 16.5 10.566623 16.72739 10.740234 17.175781 C 10.868519 17.507132 10.959901 18.178309 10.986328 18.769531 C 11.016456 18.121015 10.908765 17.111071 10.740234 16.675781 C 10.566623 16.22739 10.261293 16 9.828125 16 z M 13.492188 16 C 13.426907 15.9995 13.350175 16.002866 13.259766 16.009766 C 12.720419 16.050936 12.430205 16.234789 12.169922 16.697266 C 12.015969 16.970801 11.995548 17.138029 12.015625 17.597656 C 12.037285 17.455287 12.084029 17.349876 12.169922 17.197266 C 12.430205 16.734789 12.720419 16.550936 13.259766 16.509766 C 13.350175 16.502866 13.426908 16.4995 13.492188 16.5 C 13.688016 16.501652 13.791965 16.539915 13.931641 16.642578 C 14.164112 16.813388 14.727631 17.812477 14.916016 18.326172 C 14.967896 18.249753 15 18.171579 15 18.09375 C 15 17.790099 14.210201 16.347252 13.931641 16.142578 C 13.791965 16.039915 13.688015 16.001652 13.492188 16 z"/>
</svg>
